www/assets/icons/360.svg

<svg xmlns="http://www.w3.org/2000/svg" width="24" height="24" viewBox="0 0 24 24" fill='currentColor'><path d="M12 5.5c-5.52 0-10 2.24-10 5 0 2.24 2.94 4.13 7 4.77v3.23l4-4-4-4v2.73c-3.15-.56-5-1.9-5-2.73 0-1.06 3.04-3 8-3s8 1.94 8 3c0 .73-1.46 1.89-4 2.53v2.05c3.53-.77 6-2.53 6-4.58 0-2.76-4.48-5-10-5"/></svg>

<svg width="24" height="24" viewBox="0 0 24 24" xmlns="http://www.w3.org/2000/svg" fill='currentColor'><path d="M12 5.5C6.48 5.5 2 7.74 2 10.5C2 12.74 4.94 14.63 9 15.27V18.5L13 14.5L9 10.5V13.23C5.85 12.67 4 11.33 4 10.5C4 9.44 7.04 7.5 12 7.5C16.96 7.5 20 9.44 20 10.5C20 11.23 18.54 12.39 16 13.03V15.08C19.53 14.31 22 12.55 22 10.5C22 7.74 17.52 5.5 12 5.5Z"/></svg>
